src/xmb/monochrome/Non-Redump - Sony Electronic Book.svg

<svg xmlns="http://www.w3.org/2000/svg" xml:space="preserve" viewBox="0 0 64 64"><style>.st0{fill:#fff}</style><circle cx="42.57" cy="55.4" r="1.75" class="st0"/><path d="M51.17 3.1v57.8s0-1 4.66-1V4.1c-4.52 0-4.66-1-4.66-1M54.53 41s-1.92-.2-1.92-1.9 1.92-1.9 1.92-1.9zm-1.92-5.2V32s1.92.2 1.92 1.9c-.14 1.6-1.92 1.9-1.92 1.9" class="st0"/><circle cx="15.37" cy="55.4" r="1.75" class="st0"/><path d="M13.43 44.24h31.64v1.23H13.43z" class="st0"/><path d="M8.17 3.1v57.8h41.7V3.1zm4.5 3.1h33.4v41.5h-33.4zm-2 47.3c-.56 0-1-.4-1-1 0-.5.44-1 1-1s1 .4 1 1-.44 1-1 1m4.7 5.7c-2.1 0-3.8-1.7-3.8-3.8s1.7-3.8 3.8-3.8 3.8 1.7 3.8 3.8-1.7 3.8-3.8 3.8m4.8 0c-.5 0-1-.4-1-1s.4-1 1-1 1 .4 1 1-.5 1-1 1m22.4 0c-2.1 0-3.8-1.7-3.8-3.8s1.7-3.8 3.8-3.8 3.8 1.7 3.8 3.8-1.7 3.8-3.8 3.8m4.8-5.7c-.5 0-1-.4-1-1 0-.5.4-1 1-1s1 .4 1 1c-.1.6-.5 1-1 1" class="st0"/></svg>

<?xml version="1.0" encoding="utf-8"?>
<svg version="1.1" xmlns="http://www.w3.org/2000/svg" xmlns:xlink="http://www.w3.org/1999/xlink" x="0px" y="0px" viewBox="0 0 64 64" style="enable-background:new 0 0 64 64;" xml:space="preserve">
<style type="text/css">
	.st0{fill:#FFFFFF;}
</style>
<g>
	<circle class="st0" cx="42.57" cy="55.4" r="1.75"/>
	<path class="st0" d="M51.17,3.1v57.8c0,0,0-1,4.66-1V4.1C51.31,4.1,51.17,3.1,51.17,3.1z M54.53,41c0,0-1.92-0.2-1.92-1.9s1.92-1.9,1.92-1.9V41z M52.61,35.8V32c0,0,1.92,0.2,1.92,1.9C54.39,35.5,52.61,35.8,52.61,35.8z"/>
	<circle class="st0" cx="15.37" cy="55.4" r="1.75"/>
	<rect x="13.43" y="44.24" class="st0" width="31.64" height="1.23"/>
	<path class="st0" d="M8.17,3.1v57.8h41.7V3.1H8.17z M12.67,6.2h33.4v41.5h-33.4C12.67,47.7,12.67,6.2,12.67,6.2z M10.67,53.5c-0.56,0-1-0.4-1-1c0-0.5,0.44-1,1-1s1,0.4,1,1S11.23,53.5,10.67,53.5z M15.37,59.2c-2.1,0-3.8-1.7-3.8-3.8s1.7-3.8,3.8-3.8s3.8,1.7,3.8,3.8S17.47,59.2,15.37,59.2z M20.17,59.2c-0.5,0-1-0.4-1-1s0.4-1,1-1s1,0.4,1,1S20.67,59.2,20.17,59.2z M42.57,59.2c-2.1,0-3.8-1.7-3.8-3.8s1.7-3.8,3.8-3.8s3.8,1.7,3.8,3.8S44.67,59.2,42.57,59.2z M47.37,53.5c-0.5,0-1-0.4-1-1c0-0.5,0.4-1,1-1s1,0.4,1,1C48.27,53.1,47.87,53.5,47.37,53.5z"/>
</g>
</svg>
